icons/glyphs/glyph-amarok.svg

<?xml version="1.0" encoding="UTF-8" standalone="no"?><svg height="16" viewBox="0 0 4.2333332 4.2333332" width="16" xmlns="http://www.w3.org/2000/svg"><sodipodi:namedview/><metadata><rdf:RDF><cc:Work><dc:format>image/svg+xml</dc:format><dc:type/><dc:title/></cc:Work></rdf:RDF></metadata><path d="m2.1166666.0085268a2.1166666 2.1166666 0 0 0 -2.11666664 2.1166666 2.1166666 2.1166666 0 0 0  .1824178.8536946c.008485-.00488.0299407-.02023.0330729-.02067.0391849-.00558.15667309-.035597.27543539-.098702l-.005168-.055811s.0806447-.00452.18293458-.074414c.042163-.044211.0930176-.097152.0930176-.097152-.14705906-.0713888-.48571538-.6145966-.37206999-.6516396.07157511-.0234555.15972925-.0771767.27905276-.1059366.11932279-.0287604.3538858-.1314603.4278808-.1725993.0740883-.041139.1976322.0040726.3457154-.0124024.2279423-.0618953.3386704-.1232945.3937744-.1653646l-.00723-.081649s.042126.018488.1250569.025838c.05538-.00158.1496477-.000281.3601848.019637.184662.017498.238849-.00845.3539834-.037207.1150014-.028704.47829-.1640837.6392376-.1891357.00169-.000952.092817-.052168.1245402-.057878.032018-.00586.087333-.014469.087333-.014469s.023328.02909.040824.069763c.017499.040768.017053.069763.017053.069763.014043.031702.028939.073363.028939.1136882 0 .056187-.021945.1141678-.064595.1648478.00034-.00016.00362-.00207.00362-.00207 0 .0000001-.078231.1132288-.1043866.1539958-.026155.040674-.1196787.2937951-.1167887.3374471s.075634.058165.1250569.078548c.00801.0033.012283.00696.017053.010335l.099219.022221s.024771.061102.020671.094051-.070144.1442387-.1400429.1607137c-.0699074.0164784-.4009921.1013897-.4728472.1565837-.0762288.0584514-.2547347.1913479-.3855061.3901571-.039744.0987531-.0310059.1958536-.0310059.1958536h-.07028c-.018614.050633-.033715.1037-.042375.160197-.00689.2381806.063562.4361492.063562.4361492s-.05469.0005615-.095085.059944c-.012447.1295379-.03225.2631316-.047542.3632854a2.1166666 2.1166666 0 0 0 1.8686202-2.099613 2.1166666 2.1166666 0 0 0 -2.1166666-2.1166666z" fill="#d0d0d0" stroke-width=".449792"/></svg>

<?xml version="1.0" encoding="UTF-8" standalone="no"?>
<!-- Created with Inkscape (http://www.inkscape.org/) -->

<svg
   xmlns:dc="http://purl.org/dc/elements/1.1/"
   xmlns:cc="http://creativecommons.org/ns#"
   xmlns:rdf="http://www.w3.org/1999/02/22-rdf-syntax-ns#"
   xmlns:svg="http://www.w3.org/2000/svg"
   xmlns="http://www.w3.org/2000/svg"
   xmlns:xlink="http://www.w3.org/1999/xlink"
   xmlns:sodipodi="http://sodipodi.sourceforge.net/DTD/sodipodi-0.dtd"
   xmlns:inkscape="http://www.inkscape.org/namespaces/inkscape"
   width="16"
   height="16"
   viewBox="0 0 4.2333332 4.2333332"
   version="1.1"
   id="svg8"
   inkscape:version="0.92+devel (4546dc857e, 2017-07-25, custom)"
   sodipodi:docname="glyph-amarok.svg">
  <defs
     id="defs2">
    <linearGradient
       xlink:href="#a"
       id="b"
       y1="39.240002"
       x1="25.868999"
       y2="10.624"
       x2="24.539"
       gradientUnits="userSpaceOnUse"
       gradientTransform="matrix(0.09307562,0,0,0.09307562,-0.35532043,0.20363083)" />
    <linearGradient
       id="a"
       y1="37.110001"
       x1="26.424999"
       y2="24"
       x2="44"
       gradientUnits="userSpaceOnUse">
      <stop
         stop-color="#2980b9"
         id="stop2" />
      <stop
         offset="1"
         stop-color="#1d99f3"
         id="stop4" />
    </linearGradient>
  </defs>
  <sodipodi:namedview
     id="base"
     pagecolor="#002466"
     bordercolor="#ffffff"
     borderopacity="0.38039216"
     inkscape:pageopacity="1"
     inkscape:pageshadow="2"
     inkscape:zoom="12.875"
     inkscape:cx="10.094581"
     inkscape:cy="7.9162778"
     inkscape:document-units="px"
     inkscape:current-layer="svg8"
     inkscape:document-rotation="0"
     showgrid="false"
     inkscape:showpageshadow="false"
     borderlayer="true"
     inkscape:window-width="1920"
     inkscape:window-height="1051"
     inkscape:window-x="0"
     inkscape:window-y="0"
     inkscape:window-maximized="1"
     units="px"
     inkscape:snap-page="true"
     inkscape:snap-grids="false"
     inkscape:snap-to-guides="false" />
  <metadata
     id="metadata5">
    <rdf:RDF>
      <cc:Work
         rdf:about="">
        <dc:format>image/svg+xml</dc:format>
        <dc:type
           rdf:resource="http://purl.org/dc/dcmitype/StillImage" />
        <dc:title></dc:title>
      </cc:Work>
    </rdf:RDF>
  </metadata>
  <path
     style="font-variation-settings:normal;vector-effect:none;fill:#d0d0d0;stroke-width:0.44979167"
     d="M 2.1166666,0.0085268 A 2.1166666,2.1166666 0 0 0 -4e-8,2.1251934 2.1166666,2.1166666 0 0 0 0.18241776,2.978888 c 0.008485,-0.00488 0.0299407,-0.02023 0.0330729,-0.02067 0.0391849,-0.00558 0.15667309,-0.035597 0.27543539,-0.098702 l -0.005168,-0.055811 c 0,0 0.0806447,-0.00452 0.18293458,-0.074414 C 0.71085563,2.68508 0.76171023,2.632139 0.76171023,2.632139 0.61465117,2.5607502 0.27599485,2.0175424 0.38964024,1.9804994 0.46121535,1.9570439 0.54936949,1.9033227 0.668693,1.8745628 0.78801579,1.8458024 1.0225788,1.7431025 1.0965738,1.7019635 1.1706621,1.6608245 1.294206,1.7060361 1.4422892,1.6895611 1.6702315,1.6276658 1.7809596,1.5662666 1.8360636,1.5241965 l -0.00723,-0.081649 c 0,0 0.042126,0.018488 0.1250569,0.025838 0.05538,-0.00158 0.1496477,-2.81e-4 0.3601848,0.019637 0.184662,0.017498 0.238849,-0.00845 0.3539834,-0.037207 0.1150014,-0.028704 0.47829,-0.1640837 0.6392376,-0.1891357 0.00169,-9.52e-4 0.092817,-0.052168 0.1245402,-0.057878 0.032018,-0.00586 0.087333,-0.014469 0.087333,-0.014469 0,0 0.023328,0.02909 0.040824,0.069763 0.017499,0.040768 0.017053,0.069763 0.017053,0.069763 0.014043,0.031702 0.028939,0.073363 0.028939,0.1136882 0,0.056187 -0.021945,0.1141678 -0.064595,0.1648478 3.4e-4,-1.6e-4 0.00362,-0.00207 0.00362,-0.00207 0,1e-7 -0.078231,0.1132288 -0.1043866,0.1539958 -0.026155,0.040674 -0.1196787,0.2937951 -0.1167887,0.3374471 0.00289,0.043652 0.075634,0.058165 0.1250569,0.078548 0.00801,0.0033 0.012283,0.00696 0.017053,0.010335 l 0.099219,0.022221 c 0,0 0.024771,0.061102 0.020671,0.094051 -0.0041,0.032949 -0.070144,0.1442387 -0.1400429,0.1607137 C 3.3758848,2.4791148 3.0448001,2.5640261 2.972945,2.6192201 2.8967162,2.6776715 2.7182103,2.810568 2.5874389,3.0093772 2.5476949,3.1081303 2.556433,3.2052308 2.556433,3.2052308 h -0.07028 c -0.018614,0.050633 -0.033715,0.1037 -0.042375,0.160197 -0.00689,0.2381806 0.063562,0.4361492 0.063562,0.4361492 0,0 -0.05469,5.615e-4 -0.095085,0.059944 C 2.399808,3.9910589 2.380005,4.1246526 2.364713,4.2248064 A 2.1166666,2.1166666 0 0 0 4.2333332,2.1251934 2.1166666,2.1166666 0 0 0 2.1166666,0.0085268 Z"
     id="path1447"
     inkscape:label="#"
     inkscape:connector-curvature="0" />
</svg>
